X: 21230
T: Keel Row, The
R: strathspey
M: 4/4
K: Gmajor
|:B2 G>B c2 A>c|B2 G>B A>F D2|B2 G>B c2 A>c|B>GA>F G4:|
|:BdBd e2 d>c|B2 A>G B>G D2|BdBd e2 d>c|B2 A2 G4:|

